X:1
T:Riddles Wisely Expounded (Bonnie Broom)
M:3/4
L:1/8
K:F
 z2 z AB A| GGA Bc B|
M:2/4
 A2 Bc|
M:3/4
 d2 dd ec| d2 z dd c| B2 d2 cB| A3 z GA| ABA GA B| G2 z4|
